assets/emojis/SleepingFace.svg

<svg width="142" height="158" viewBox="0 0 142 158" fill="none" xmlns="http://www.w3.org/2000/svg">
<circle cx="63.3349" cy="94.7632" r="62.3496" fill="#F9B42F"/>
<path opacity="0.3" fill-rule="evenodd" clip-rule="evenodd" d="M114.271 130.934C102.949 142.526 87.1469 149.721 69.664 149.721C35.2293 149.721 7.31439 121.806 7.31439 87.3717C7.31439 73.9761 11.5388 61.5671 18.7282 51.4043C7.75048 62.6434 0.985352 78.0152 0.985352 94.9671C0.985352 129.402 28.9002 157.317 63.3349 157.317C84.374 157.317 102.979 146.896 114.271 130.934Z" fill="#BC8417"/>
<path d="M138.694 9.27198H136.107L140.279 4.89165C140.803 4.32375 141.094 3.57875 141.092 2.80577C141.099 2.45665 141.034 2.10982 140.902 1.78685C140.769 1.46389 140.571 1.17171 140.321 0.928488C140.048 0.657046 139.722 0.446137 139.362 0.309551C139.003 0.172965 138.619 0.113777 138.235 0.135856H130.621C128.139 0.177574 127.826 1.86713 127.826 2.59719C127.826 3.32724 128.139 5.03766 130.621 5.03766H132.895L128.723 9.41799C128.187 9.98038 127.889 10.7272 127.889 11.5039C127.886 11.8543 127.954 12.2017 128.091 12.5246C128.227 12.8475 128.428 13.139 128.681 13.3812C128.953 13.6537 129.279 13.8653 129.639 14.002C129.999 14.1386 130.383 14.1972 130.767 14.1738H138.714C141.238 14.1738 141.51 12.4634 141.51 11.7125C141.51 10.9615 141.217 9.27198 138.694 9.27198Z" fill="#517BF2"/>
<path d="M123.967 28.5043H119.378L125.802 21.6C126.498 20.892 126.894 19.9433 126.908 18.951C126.916 18.4894 126.83 18.031 126.654 17.604C126.478 17.1771 126.217 16.7908 125.886 16.4688C125.54 16.1342 125.132 15.8716 124.685 15.6961C124.237 15.5207 123.759 15.4359 123.278 15.4467H112.265C109.073 15.4467 108.594 17.5326 108.594 18.5964C108.594 19.6602 109.073 21.7669 112.265 21.7669H116.311L109.908 28.6294C109.205 29.3666 108.81 30.3437 108.802 31.3619C108.799 31.8229 108.888 32.2799 109.063 32.7061C109.239 33.1323 109.497 33.5192 109.824 33.8441C110.172 34.1812 110.584 34.4453 111.035 34.6209C111.487 34.7964 111.969 34.8798 112.453 34.8662H123.967C127.179 34.8662 127.659 32.8846 127.659 31.6957C127.659 30.5067 127.095 28.5043 123.967 28.5043Z" fill="#517BF2"/>
<path d="M62.5348 118.5C65.6811 118.5 68.2317 115.95 68.2317 112.803C68.2317 109.657 65.6811 107.106 62.5348 107.106C59.3885 107.106 56.8379 109.657 56.8379 112.803C56.8379 115.95 59.3885 118.5 62.5348 118.5Z" fill="#2C2A46"/>
<path d="M37.5974 93.6366C35.8312 93.6386 34.0821 93.2909 32.451 92.6135C30.8199 91.9362 29.339 90.9426 28.0938 89.6901C27.7128 89.177 27.5296 88.5438 27.5779 87.9066C27.6262 87.2693 27.9028 86.6709 28.3568 86.2212C28.8108 85.7715 29.4118 85.5007 30.0495 85.4584C30.6871 85.4162 31.3186 85.6054 31.828 85.9913C32.5856 86.749 33.485 87.3501 34.4749 87.7601C35.4649 88.1702 36.5259 88.3813 37.5974 88.3813C38.6688 88.3813 39.7298 88.1702 40.7198 87.7601C41.7097 87.3501 42.6091 86.749 43.3667 85.9913C43.87 85.5224 44.5355 85.2671 45.2233 85.2792C45.911 85.2914 46.5672 85.57 47.0535 86.0563C47.5399 86.5427 47.8185 87.1989 47.8307 87.8866C47.8428 88.5743 47.5875 89.2399 47.1186 89.7431C45.8681 90.9898 44.3826 91.9759 42.7482 92.6442C41.1138 93.3125 39.3631 93.6499 37.5974 93.6366Z" fill="#2C2A46"/>
<path d="M88.1074 93.6364C86.3383 93.6407 84.5859 93.2941 82.9515 92.6167C81.3172 91.9393 79.8335 90.9445 78.5862 89.6898C78.2909 89.4566 78.0486 89.1632 77.8753 88.8291C77.702 88.4951 77.6018 88.128 77.5811 87.7523C77.5605 87.3765 77.62 87.0007 77.7557 86.6497C77.8914 86.2987 78.1001 85.9805 78.3681 85.7163C78.6361 85.4522 78.9572 85.248 79.3101 85.1173C79.663 84.9866 80.0396 84.9325 80.415 84.9585C80.7904 84.9845 81.156 85.09 81.4876 85.268C81.8191 85.446 82.109 85.6925 82.3381 85.991C83.0957 86.7488 83.9951 87.3498 84.985 87.7599C85.9749 88.17 87.0359 88.381 88.1074 88.381C89.1789 88.381 90.2399 88.17 91.2299 87.7599C92.2198 87.3498 93.1192 86.7488 93.8768 85.991C94.3881 85.6312 95.01 85.4633 95.6329 85.517C96.2558 85.5707 96.8398 85.8426 97.2819 86.2847C97.724 86.7268 97.9959 87.3108 98.0496 87.9337C98.1034 88.5566 97.9355 89.1785 97.5756 89.6898C96.3346 90.9381 94.8595 91.9293 93.2348 92.6065C91.61 93.2837 89.8677 93.6337 88.1074 93.6364Z" fill="#2C2A46"/>
</svg>

<svg xmlns="http://www.w3.org/2000/svg" width="142" height="158" fill="none" viewBox="0 0 142 158"><circle cx="63.335" cy="94.763" r="62.35" fill="#f9b42f"/><path fill="#bc8417" fill-rule="evenodd" d="M114.271 130.934c-11.322 11.592-27.124 18.787-44.607 18.787-34.435 0-62.35-27.915-62.35-62.35 0-13.395 4.225-25.804 11.414-35.967C7.75 62.644.985 78.015.985 94.967c0 34.435 27.915 62.35 62.35 62.35 21.039 0 39.644-10.421 50.936-26.383" clip-rule="evenodd" opacity=".3"/><path fill="#517bf2" d="M138.694 9.272h-2.587l4.172-4.38a3.07 3.07 0 0 0 .813-2.086 2.56 2.56 0 0 0-.771-1.877 2.74 2.74 0 0 0-2.086-.793h-7.614c-2.482.042-2.795 1.731-2.795 2.461s.313 2.44 2.795 2.44h2.274l-4.172 4.381a3.02 3.02 0 0 0-.834 2.086 2.56 2.56 0 0 0 .792 1.877 2.72 2.72 0 0 0 2.086.793h7.947c2.524 0 2.796-1.71 2.796-2.461s-.293-2.441-2.816-2.441m-14.727 19.232h-4.589l6.424-6.904a3.86 3.86 0 0 0 1.106-2.649 3.38 3.38 0 0 0-1.022-2.482 3.64 3.64 0 0 0-2.608-1.022h-11.013c-3.192 0-3.671 2.086-3.671 3.15 0 1.063.479 3.17 3.671 3.17h4.046l-6.403 6.862a4 4 0 0 0-1.106 2.733 3.48 3.48 0 0 0 1.022 2.482 3.64 3.64 0 0 0 2.629 1.022h11.514c3.212 0 3.692-1.981 3.692-3.17 0-1.19-.564-3.192-3.692-3.192"/><path fill="#2c2a46" d="M62.535 118.5a5.697 5.697 0 1 0 0-11.393 5.697 5.697 0 0 0 0 11.393M37.597 93.637a13.38 13.38 0 0 1-9.503-3.947 2.655 2.655 0 0 1 3.734-3.699 8.157 8.157 0 0 0 11.539 0 2.655 2.655 0 0 1 3.752 3.752 13.34 13.34 0 0 1-9.522 3.894m50.51-.001a13.38 13.38 0 0 1-9.52-3.946 2.653 2.653 0 1 1 3.751-3.699 8.16 8.16 0 0 0 11.539 0 2.655 2.655 0 0 1 3.699 3.699 13.38 13.38 0 0 1-9.469 3.946"/></svg>
